public/static/img/market/down.svg

<svg width="26" height="26" viewBox="0 0 26 26" fill="none" xmlns="http://www.w3.org/2000/svg">
<g clip-path="url(#clip0_64_728)">
<path d="M0 13C0 9.55219 1.36964 6.24558 3.80761 3.80761C6.24558 1.36964 9.55219 0 13 0C16.4478 0 19.7544 1.36964 22.1924 3.80761C24.6304 6.24558 26 9.55219 26 13C26 16.4478 24.6304 19.7544 22.1924 22.1924C19.7544 24.6304 16.4478 26 13 26C9.55219 26 6.24558 24.6304 3.80761 22.1924C1.36964 19.7544 0 16.4478 0 13Z" fill="white"/>
<path fill-rule="evenodd" clip-rule="evenodd" d="M19.9696 18.3186H15.0702V18.317C15.0119 18.3169 14.9549 18.2995 14.9064 18.2671C14.858 18.2347 14.8202 18.1887 14.7978 18.1349C14.7754 18.081 14.7694 18.0218 14.7805 17.9645C14.7917 17.9073 14.8196 17.8547 14.8606 17.8132L16.6128 16.0616L13.8596 13.0666L12.6685 14.2853L12.6441 14.3113C12.386 14.5625 12.0386 14.7009 11.6784 14.696C11.3182 14.6912 10.9747 14.5434 10.7234 14.2853L5.65339 9.08044C5.54509 8.96926 5.45975 8.83783 5.40224 8.69367C5.34473 8.54951 5.31618 8.39543 5.31822 8.24024C5.32233 7.92681 5.45079 7.62784 5.67533 7.40912C5.78651 7.30082 5.91793 7.21548 6.06209 7.15798C6.20625 7.10047 6.36033 7.07192 6.51553 7.07395C6.67072 7.07599 6.824 7.10858 6.9666 7.16985C7.1092 7.23112 7.23834 7.31988 7.34664 7.43106H7.34826L11.6984 11.8982L12.9106 10.6551C13.0353 10.5272 13.184 10.4252 13.3481 10.3549C13.5122 10.2846 13.6886 10.2473 13.8671 10.2452C14.0457 10.2431 14.2229 10.2762 14.3886 10.3426C14.5543 10.409 14.7054 10.5075 14.833 10.6323L14.8834 10.6843L18.2857 14.3893L19.7616 12.9139C19.8029 12.8729 19.8554 12.8451 19.9125 12.8339C19.9696 12.8227 20.0287 12.8285 20.0824 12.8507C20.1362 12.8729 20.1822 12.9105 20.2148 12.9587C20.2473 13.0069 20.2649 13.0637 20.2653 13.1219V18.0229C20.2653 18.1854 20.1321 18.3186 19.9696 18.3186Z" fill="#FF4834"/>
</g>
<defs>
<clipPath id="clip0_64_728">
<rect width="26" height="26" fill="white" transform="matrix(1 0 0 -1 0 26)"/>
</clipPath>
</defs>
</svg>

<svg width="26" height="26" fill="none" xmlns="http://www.w3.org/2000/svg"><g clip-path="url(#a)"><path d="M0 13a13 13 0 1 1 26 0 13 13 0 0 1-26 0Z" fill="#fff"/><path fill-rule="evenodd" clip-rule="evenodd" d="M19.97 18.319h-4.9v-.002a.296.296 0 0 1-.21-.504l1.753-1.751-2.753-2.995-1.191 1.218-.025.026a1.358 1.358 0 0 1-1.92-.026L5.653 9.08a1.182 1.182 0 0 1 1.693-1.649h.001l4.35 4.467 1.213-1.243a1.358 1.358 0 0 1 1.922-.023l.05.052 3.403 3.705 1.476-1.475a.295.295 0 0 1 .453.045c.032.048.05.105.05.163v4.9a.297.297 0 0 1-.295.297Z" fill="#FF4834"/></g><defs><clipPath id="a"><path fill="#fff" transform="matrix(1 0 0 -1 0 26)" d="M0 0h26v26H0z"/></clipPath></defs></svg>
